X:694
T:Mrs. Dundas McQueen
R:Reel
B:The Athole Collection
M:C|
L:1/8
K:A
a|cAec dBfd|cAec e/f/g a<e|cAec dBfB|cA A/A/A f2e:|
g|a/g/f/e/ ac dBfg|aeag f2 e/f/g|aefc dBed|cA A/A/A f2eg|
a/g/f/e/ ac dBfg|aeag f2 e/f/g|aefc dBed|cAAa faea||

